Vetores/Feitos/donut.svg

<?xml version="1.0" encoding="UTF-8" standalone="no"?>
<!-- Created with Inkscape (http://www.inkscape.org/) -->

<svg
   xmlns:dc="http://purl.org/dc/elements/1.1/"
   xmlns:cc="http://creativecommons.org/ns#"
   xmlns:rdf="http://www.w3.org/1999/02/22-rdf-syntax-ns#"
   xmlns:svg="http://www.w3.org/2000/svg"
   xmlns="http://www.w3.org/2000/svg"
   xmlns:sodipodi="http://sodipodi.sourceforge.net/DTD/sodipodi-0.dtd"
   xmlns:inkscape="http://www.inkscape.org/namespaces/inkscape"
   width="933.15747"
   height="338.87662"
   viewBox="0 0 246.89791 89.661108"
   version="1.1"
   id="svg8"
   inkscape:version="0.92.4 (33fec40, 2019-01-16)"
   sodipodi:docname="donut.svg">
  <defs
     id="defs2" />
  <sodipodi:namedview
     id="base"
     pagecolor="#ffffff"
     bordercolor="#666666"
     borderopacity="1.0"
     inkscape:pageopacity="0.0"
     inkscape:pageshadow="2"
     inkscape:zoom="0.70710678"
     inkscape:cx="530.14449"
     inkscape:cy="147.86563"
     inkscape:document-units="px"
     inkscape:current-layer="layer1"
     showgrid="false"
     showborder="false"
     units="px"
     inkscape:window-width="1366"
     inkscape:window-height="709"
     inkscape:window-x="0"
     inkscape:window-y="0"
     inkscape:window-maximized="1"
     inkscape:object-paths="false"
     inkscape:snap-intersection-paths="false"
     inkscape:snap-smooth-nodes="false"
     inkscape:snap-midpoints="true"
     inkscape:object-nodes="false" />
  <metadata
     id="metadata5">
    <rdf:RDF>
      <cc:Work
         rdf:about="">
        <dc:format>image/svg+xml</dc:format>
        <dc:type
           rdf:resource="http://purl.org/dc/dcmitype/StillImage" />
        <dc:title />
      </cc:Work>
    </rdf:RDF>
  </metadata>
  <g
     inkscape:label="Camada 1"
     inkscape:groupmode="layer"
     id="layer1"
     transform="translate(200.4217,-164.21489)">
    <path
       style="opacity:0.50700001;fill:#ff9955;stroke-width:0.33870959"
       d="m -235.18945,643.20898 a 150,150 0 0 0 -136.23828,149.31055 150,150 0 0 0 150,150 150,150 0 0 0 149.999996,-150 150,150 0 0 0 -14.738282,-64.41015 39.999999,39.999999 0 0 1 -21.480464,-5.38086 A 39.999999,39.999999 0 0 1 -122,708.30078 a 47.499999,47.499999 0 0 1 -52.58789,3.1543 47.499999,47.499999 0 0 1 -22.63867,-50.07422 39.999999,39.999999 0 0 1 -24.43164,-5.17774 39.999999,39.999999 0 0 1 -13.53125,-12.99414 z m 13.76172,99.31055 a 50.000001,50.000001 0 0 1 50,50 50.000001,50.000001 0 0 1 -50,50 50.000001,50.000001 0 0 1 -50,-50 50.000001,50.000001 0 0 1 50,-50 z"
       id="path3770"
       transform="scale(0.26458333)"
       inkscape:connector-curvature="0" />
    <path
       style="opacity:0.50700001;fill:#00ffff;stroke-width:2.35849023"
       d="m -221.42773,667.51953 a 125,125 0 0 0 -125,125 125,125 0 0 0 125,125 125,125 0 0 0 124.999996,-125 125,125 0 0 0 -30.078126,-81.26172 47.499999,47.499999 0 0 1 -28.76953,6.38867 99.999998,99.999998 0 0 1 33.84766,74.87305 99.999998,99.999998 0 0 1 -100,100 99.999998,99.999998 0 0 1 -100,-100 99.999998,99.999998 0 0 1 100,-100 99.999998,99.999998 0 0 1 32.08789,5.39258 47.499999,47.499999 0 0 1 -8.7168,-28.09766 125,125 0 0 0 -23.37109,-2.29492 z"
       transform="scale(0.26458333)"
       id="path3794"
       inkscape:connector-curvature="0" />
    <path
       style="opacity:0.50700001;fill:#00ff00;stroke:none;stroke-width:2.30072451;stroke-miterlimit:4;stroke-dasharray:none"
       d="m -182.71829,198.55785 a 12.567708,12.567708 0 0 0 13.91391,-0.83434 10.583333,10.583333 0 0 0 3.79771,3.81698 10.583333,10.583333 0 0 0 14.47474,-3.80732 10.583333,10.583333 0 0 0 -3.80732,-14.47474 10.583333,10.583333 0 0 0 -10.366,-0.15819 12.567708,12.567708 0 0 0 -5.34548,-6.25235 12.567708,12.567708 0 0 0 -9.23877,-1.36716 10.583333,10.583333 0 0 0 -5.21516,-9.82354 10.583333,10.583333 0 0 0 -14.47474,3.80732 10.583333,10.583333 0 0 0 3.80731,14.47474 10.583333,10.583333 0 0 0 6.46422,1.36963 12.567708,12.567708 0 0 0 5.98958,13.24897 z"
       id="path4686"
       inkscape:connector-curvature="0" />
    <path
       style="opacity:0.50700001;fill:#ffff00;stroke-width:0.33870959"
       d="m -239.57422,643.83594 a 150,150 0 0 0 -131.85351,148.68359 150,150 0 0 0 5.35156,39.05078 l 96.64453,-25.15234 a 49.999999,49.999999 0 0 1 -1.99609,-13.89844 49.999999,49.999999 0 0 1 50,-50 49.999999,49.999999 0 0 1 48.65429,38.74414 l 96.546878,-25.125 a 150,150 0 0 0 -8.074219,-23.9082 c -9.050749,2.49625 -18.422409,2.12122 -26.345699,-2.50195 -5.94824,-3.49093 -10.89274,-8.46191 -14.35352,-14.42774 -15.28708,11.56634 -36.02819,12.81095 -52.58789,3.1543 -17.41557,-10.18931 -26.49419,-30.26866 -22.63867,-50.07422 -8.48765,0.92621 -17.04893,-0.88895 -24.43164,-5.17774 -7.14946,-4.17162 -12.10177,-11.20263 -14.91602,-19.36718 z"
       transform="scale(0.26458333)"
       id="path4707"
       inkscape:connector-curvature="0" />
    <rect
       rx="10.186458"
       style="opacity:0.47400004;stroke-width:0.12710826"
       y="214.45308"
       x="30.601219"
       height="39.422913"
       width="15.874998"
       id="rect870" />
  </g>
</svg>

<?xml version="1.0" encoding="UTF-8" standalone="no"?>
<!-- Created with Inkscape (http://www.inkscape.org/) -->

<svg
   xmlns:dc="http://purl.org/dc/elements/1.1/"
   xmlns:cc="http://creativecommons.org/ns#"
   xmlns:rdf="http://www.w3.org/1999/02/22-rdf-syntax-ns#"
   xmlns:svg="http://www.w3.org/2000/svg"
   xmlns="http://www.w3.org/2000/svg"
   xmlns:sodipodi="http://sodipodi.sourceforge.net/DTD/sodipodi-0.dtd"
   xmlns:inkscape="http://www.inkscape.org/namespaces/inkscape"
   width="793.70081"
   height="1122.5197"
   viewBox="0 0 210 297"
   version="1.1"
   id="svg8"
   inkscape:version="0.92.4 (33fec40, 2019-01-16)"
   sodipodi:docname="donut.svg">
  <defs
     id="defs2" />
  <sodipodi:namedview
     id="base"
     pagecolor="#ffffff"
     bordercolor="#666666"
     borderopacity="1.0"
     inkscape:pageopacity="0.0"
     inkscape:pageshadow="2"
     inkscape:zoom="0.70710678"
     inkscape:cx="-290.99447"
     inkscape:cy="356.10881"
     inkscape:document-units="px"
     inkscape:current-layer="layer1"
     showgrid="false"
     showborder="false"
     units="px"
     inkscape:window-width="1366"
     inkscape:window-height="709"
     inkscape:window-x="0"
     inkscape:window-y="0"
     inkscape:window-maximized="1"
     inkscape:object-paths="false"
     inkscape:snap-intersection-paths="false"
     inkscape:snap-smooth-nodes="false"
     inkscape:snap-midpoints="true"
     inkscape:object-nodes="false" />
  <metadata
     id="metadata5">
    <rdf:RDF>
      <cc:Work
         rdf:about="">
        <dc:format>image/svg+xml</dc:format>
        <dc:type
           rdf:resource="http://purl.org/dc/dcmitype/StillImage" />
        <dc:title />
      </cc:Work>
    </rdf:RDF>
  </metadata>
  <g
     inkscape:label="Camada 1"
     inkscape:groupmode="layer"
     id="layer1">
    <path
       style="opacity:0.50700001;fill:#ff9955;stroke-width:0.33870959"
       d="M -235.18945 643.20898 A 150 150 0 0 0 -371.42773 792.51953 A 150 150 0 0 0 -221.42773 942.51953 A 150 150 0 0 0 -71.427734 792.51953 A 150 150 0 0 0 -86.166016 728.10938 A 39.999999 39.999999 0 0 1 -107.64648 722.72852 A 39.999999 39.999999 0 0 1 -122 708.30078 A 47.499999 47.499999 0 0 1 -174.58789 711.45508 A 47.499999 47.499999 0 0 1 -197.22656 661.38086 A 39.999999 39.999999 0 0 1 -221.6582 656.20312 A 39.999999 39.999999 0 0 1 -235.18945 643.20898 z M -221.42773 742.51953 A 50.000001 50.000001 0 0 1 -171.42773 792.51953 A 50.000001 50.000001 0 0 1 -221.42773 842.51953 A 50.000001 50.000001 0 0 1 -271.42773 792.51953 A 50.000001 50.000001 0 0 1 -221.42773 742.51953 z "
       id="path3770"
       transform="scale(0.26458333)" />
    <path
       style="opacity:0.50700001;fill:#00ffff;stroke-width:2.35849023"
       d="M -221.42773 667.51953 A 125 125 0 0 0 -346.42773 792.51953 A 125 125 0 0 0 -221.42773 917.51953 A 125 125 0 0 0 -96.427734 792.51953 A 125 125 0 0 0 -126.50586 711.25781 A 47.499999 47.499999 0 0 1 -155.27539 717.64648 A 99.999998 99.999998 0 0 1 -121.42773 792.51953 A 99.999998 99.999998 0 0 1 -221.42773 892.51953 A 99.999998 99.999998 0 0 1 -321.42773 792.51953 A 99.999998 99.999998 0 0 1 -221.42773 692.51953 A 99.999998 99.999998 0 0 1 -189.33984 697.91211 A 47.499999 47.499999 0 0 1 -198.05664 669.81445 A 125 125 0 0 0 -221.42773 667.51953 z "
       transform="scale(0.26458333)"
       id="path3794" />
    <path
       style="opacity:0.50700001;fill:#00ff00;stroke:none;stroke-width:2.30072451;stroke-miterlimit:4;stroke-dasharray:none"
       d="m -182.71829,198.55785 a 12.567708,12.567708 0 0 0 13.91391,-0.83434 10.583333,10.583333 0 0 0 3.79771,3.81698 10.583333,10.583333 0 0 0 14.47474,-3.80732 10.583333,10.583333 0 0 0 -3.80732,-14.47474 10.583333,10.583333 0 0 0 -10.366,-0.15819 12.567708,12.567708 0 0 0 -5.34548,-6.25235 12.567708,12.567708 0 0 0 -9.23877,-1.36716 10.583333,10.583333 0 0 0 -5.21516,-9.82354 10.583333,10.583333 0 0 0 -14.47474,3.80732 10.583333,10.583333 0 0 0 3.80731,14.47474 10.583333,10.583333 0 0 0 6.46422,1.36963 12.567708,12.567708 0 0 0 5.98958,13.24897 z"
       id="path4686"
       inkscape:connector-curvature="0" />
    <path
       style="opacity:0.50700001;fill:#ffff00;stroke-width:0.33870959"
       d="M -239.57422 643.83594 A 150 150 0 0 0 -371.42773 792.51953 A 150 150 0 0 0 -366.07617 831.57031 L -269.43164 806.41797 A 49.999999 49.999999 0 0 1 -271.42773 792.51953 A 49.999999 49.999999 0 0 1 -221.42773 742.51953 A 49.999999 49.999999 0 0 1 -172.77344 781.26367 L -76.226562 756.13867 A 150 150 0 0 0 -84.300781 732.23047 C -93.35153 734.72672 -102.72319 734.35169 -110.64648 729.72852 C -116.59472 726.23759 -121.53922 721.26661 -125 715.30078 C -140.28708 726.86712 -161.02819 728.11173 -177.58789 718.45508 C -195.00346 708.26577 -204.08208 688.18642 -200.22656 668.38086 C -208.71421 669.30707 -217.27549 667.49191 -224.6582 663.20312 C -231.80766 659.0315 -236.75997 652.00049 -239.57422 643.83594 z "
       transform="scale(0.26458333)"
       id="path4707" />
    <rect
       rx="10.186458"
       style="opacity:0.47400004;stroke-width:0.12710826"
       y="214.45308"
       x="30.601219"
       height="39.422913"
       width="15.874998"
       id="rect870" />
  </g>
</svg>
